docs/.gitbook/assets/icon-speech-bubble-important-16@light.svg

<svg width="32" height="32" viewBox="0 0 16 16" fill="none" xmlns="http://www.w3.org/2000/svg">
<rect x="0" y="0" width="16" height="16" fill="#fff"/>
<path fill-rule="evenodd" clip-rule="evenodd" d="M5.75 2.5C3.95507 2.5 2.5 3.95507 2.5 5.75V8.25C2.5 9.76334 3.53504 11.0368 4.93694 11.3977C5.26836 11.483 5.5 11.7818 5.5 12.124V12.833L7.26944 11.6298C7.39382 11.5452 7.54076 11.5 7.69118 11.5H10.25C12.0449 11.5 13.5 10.0449 13.5 8.25V5.75C13.5 3.95507 12.0449 2.5 10.25 2.5H5.75ZM1 5.75C1 3.12665 3.12665 1 5.75 1H10.25C12.8734 1 15 3.12665 15 5.75V8.25C15 10.8734 12.8734 13 10.25 13H7.92202L5.17173 14.8702C4.94199 15.0264 4.6447 15.0428 4.39914 14.9129C4.15359 14.7829 4 14.5278 4 14.25V12.667C2.24301 11.9703 1 10.2561 1 8.25V5.75ZM7 9C7 8.44772 7.44772 8 8 8C8.55228 8 9 8.44772 9 9C9 9.55229 8.55228 10 8 10C7.44772 10 7 9.55229 7 9ZM9 5C9 4.44772 8.55228 4 8 4C7.44772 4 7 4.44772 7 5V6C7 6.55228 7.44772 7 8 7C8.55228 7 9 6.55228 9 6V5Z" fill="#000"/>
</svg>

<svg xmlns="http://www.w3.org/2000/svg" width="32" height="32" fill="none" viewBox="0 0 16 16"><path fill="#fff" d="M0 0h16v16H0z"/><path fill="#000" fill-rule="evenodd" d="M5.75 2.5A3.25 3.25 0 0 0 2.5 5.75v2.5a3.25 3.25 0 0 0 2.437 3.148.75.75 0 0 1 .563.726v.709l1.77-1.203a.75.75 0 0 1 .421-.13h2.559a3.25 3.25 0 0 0 3.25-3.25v-2.5a3.25 3.25 0 0 0-3.25-3.25zM1 5.75A4.75 4.75 0 0 1 5.75 1h4.5A4.75 4.75 0 0 1 15 5.75v2.5A4.75 4.75 0 0 1 10.25 13H7.922l-2.75 1.87A.75.75 0 0 1 4 14.25v-1.583A4.75 4.75 0 0 1 1 8.25zM7 9a1 1 0 1 1 2 0 1 1 0 0 1-2 0m2-4a1 1 0 0 0-2 0v1a1 1 0 0 0 2 0z" clip-rule="evenodd"/></svg>
